X:557
T: "Ihr Bild"
N: Z1237
O: Europa, Mitteleuropa, Oesterreich
R: Liebes - Lied
M: 3/4
L: 1/8
K: A
A2 | B3cd2 | e2
A2A2 | d3GG2 | A2
c2c2 | B3cd2 | e2
A2A2 | d3GG2 | A2z2

@@@ Tune index: 10315
